img/partners/belaz.svg

<svg width="269" height="81" viewBox="0 0 269 81" fill="none" xmlns="http://www.w3.org/2000/svg">
<path d="M51.1807 40.5V53H66.6128H82.0449L83.3075 50.0763C84.5421 47.1949 84.5701 47.0254 84.5701 43.7203V40.3305L83.1953 40.2034L81.8204 40.0763L83.055 37.1949C84.2334 34.4831 84.2895 34.1864 84.2895 31.178V28H67.7351H51.1807V40.5ZM72.8978 35.7119C73.1223 36.2627 73.1223 36.6864 72.8978 37.1949C72.6173 37.8729 72 37.9576 67.9034 38.0847L63.2458 38.1695V36.4746V34.7797L67.9034 34.8644C72 34.9915 72.6173 35.0763 72.8978 35.7119ZM72.6173 42.9576C72.9259 43.2966 73.0942 43.9322 73.0101 44.5678L72.9259 45.5847L68.0999 45.7119L63.2458 45.7966V44.1017V42.4068H67.679C70.8776 42.4068 72.2525 42.5763 72.6173 42.9576Z" fill="#273C8D"/>
<path d="M88.1334 28.2966C88.0212 28.4237 87.937 34.0593 87.937 40.7966V53H102.471H117.005L117.735 49.6102L118.465 46.2203L109.598 46.1356L100.704 46.0085V44.5254V43.0424L108.925 42.9153L117.118 42.8305V40.2881V37.7458H108.84H100.563V36.4746V35.2034H108.84H117.118V31.6017V28H102.724C94.7833 28 88.2176 28.1271 88.1334 28.2966Z" fill="#273C8D"/>
<path d="M121.326 40.5V53H134.205H147.084L147.814 49.6949C148.206 47.9153 148.543 46.3051 148.543 46.0932C148.543 45.9237 145.4 45.7966 141.528 45.7966H134.514V36.8983V28H127.92H121.326V40.5Z" fill="#273C8D"/>
<path d="M153.79 28.2966C153.706 28.5085 153.004 31.0932 152.219 34.0593L150.788 39.4407V46.2203V53H156.961H163.134V51.5169V50.0339H165.518H167.903V51.5169V53H174.217H180.53V46.3051V39.6102L179.015 33.9322L177.499 28.2119L165.715 28.0847C159.205 28.0424 153.846 28.1271 153.79 28.2966ZM166.36 35.2034C166.529 35.6271 167.342 42.1949 167.342 43.1271C167.342 43.5085 166.809 43.678 165.659 43.678C163.751 43.678 163.807 43.8898 164.256 39.4407C164.733 34.9068 164.761 34.7797 165.518 34.7797C165.883 34.7797 166.276 34.9492 166.36 35.2034Z" fill="#273C8D"/>
<path d="M183.335 31.6017V35.2034H189.424C193.521 35.2034 195.429 35.3305 195.232 35.6271C195.064 35.8814 192.482 38.2966 189.48 41.0508L184.037 46.0508L183.953 49.5254L183.869 53L200.058 52.9153L216.248 52.7881L217.034 49.3136L217.819 45.7966L210.608 45.7119L203.397 45.5847L209.43 40.2458L215.462 34.8644L215.546 31.4322L215.631 28H199.469H183.335V31.6017Z" fill="#273C8D"/>
</svg>

<svg width="269" height="81" fill="none" xmlns="http://www.w3.org/2000/svg"><path d="M51.18 40.5V53h30.866l1.263-2.924c1.234-2.881 1.262-3.05 1.262-6.356v-3.39l-1.375-.127-1.375-.127 1.235-2.881c1.178-2.712 1.234-3.009 1.234-6.017V28H51.182v12.5zm21.718-4.788c.224.55.224.974 0 1.483-.28.678-.898.763-4.995.89l-4.657.084V34.78l4.657.084c4.097.128 4.714.212 4.995.848zm-.28 7.246c.308.339.476.974.392 1.61l-.084 1.017-4.826.127-4.854.085v-3.39h4.433c3.199 0 4.573.17 4.938.55zm15.515-14.661c-.112.127-.196 5.762-.196 12.5V53h29.068l.73-3.39.73-3.39-8.867-.084-8.894-.128v-2.966l8.221-.127 8.193-.084v-5.085h-16.555v-2.543h16.555V28h-14.394c-7.94 0-14.506.127-14.59.297zM121.326 40.5V53h25.758l.73-3.305c.392-1.78.729-3.39.729-3.602 0-.17-3.143-.296-7.015-.296h-7.014V28h-13.188v12.5zm32.464-12.203c-.084.212-.786 2.796-1.571 5.762l-1.431 5.382V53h12.346v-2.966h4.769V53h12.627V39.61l-1.515-5.678-1.516-5.72-11.784-.127c-6.51-.043-11.869.042-11.925.212zm12.57 6.906c.169.424.982 6.992.982 7.924 0 .381-.533.551-1.683.551-1.908 0-1.852.212-1.403-4.237.477-4.534.505-4.661 1.262-4.661.365 0 .758.17.842.423zm16.975-3.601v3.601h6.089c4.097 0 6.005.127 5.808.424-.168.254-2.75 2.67-5.752 5.424l-5.443 5-.084 3.474-.084 3.475 16.189-.085 16.19-.127.786-3.474.785-3.517-7.211-.085-7.211-.127 6.033-5.34 6.032-5.38.084-3.433.085-3.432h-32.296v3.602z" fill="#273C8D"/></svg>
